X: 11
T:Muiñeira Popular (1)
M:6/8
L:1/8
Q:200
C:Trad
R:Muiñeira
B:Os Segredos da Gaita. FOXO
K:C
GAG E2 G | c2B A2G | !
GFE DEF  | GAB  c2 G|
GAG E2 G | c2B A2G | !
GFE DEF  |GAG C3 :|
 |:  G2F ECE | DB,D C2"F."G |
CB,C DEF | GAB c2G |
{A}G2F ECE | DB,D C2"F."G |
CB,C DEF | DB,D C3 :||

